NotoEmoji/emoji_u1f6c2.svg

<svg enable-background="new 0 0 128 128" viewBox="0 0 128 128" xmlns="http://www.w3.org/2000/svg"><path d="m116 4h-104c-4.42 0-8 3.58-8 8v104c0 4.42 3.58 8 8 8h104c4.42 0 8-3.58 8-8v-104c0-4.42-3.58-8-8-8z" fill="#194fa5"/><path d="m109.7 4h-98.2c-4.13.03-7.47 3.37-7.5 7.5v97.9c-.01 4.14 3.34 7.49 7.48 7.5h.02 98.1c4.14.01 7.49-3.34 7.5-7.48 0-.01 0-.01 0-.02v-97.9c.09-4.05-3.13-7.41-7.18-7.5-.07 0-.15 0-.22 0z" fill="#2262dd"/><g fill="#fafafa"><path d="m65.4 21.2c-1.1-1.23-1-3.13.24-4.24.54-.48 1.24-.76 1.96-.76h31.4c1.1 0 2 .9 2 2v5.1c0 1.1-.9 2-2 2h-26.9c-3.6 0-6.7-4.1-6.7-4.1z"/><path d="m96 112h-26c-.52.03-.97-.36-1-.88 0-.04 0-.08 0-.12v-6c-.03-.52.36-.97.88-1h.12 26c.52-.03.97.36 1 .88v.12 6c.03.52-.36.97-.88 1-.04 0-.08 0-.12 0z"/><path d="m101 30c0-1.1-.9-2-2-2h-27.9c-.82.02-1.64.19-2.4.5l-4.3 1.9c-.94.58-1.23 1.81-.65 2.75.37.6 1.04.96 1.75.95h4.5c.55 0 1 .44 1.01.99 0 .04 0 .07-.01.11v.9c0 8.28 6.72 15 15 15s15-6.72 15-15z"/><path d="m13 38.8v25.4c0 .87.57 1.64 1.4 1.9l18.4 5.8c.82.28 1.71-.16 1.99-.98 0-.01 0-.01.01-.02v-29.2c.01-1-.71-1.85-1.7-2l-17.7-2.9c-1.08-.22-2.14.48-2.36 1.56-.03.14-.04.29-.04.44z"/><path d="m38.9 34-19.4.9c-.14 0-.25.11-.25.25s.11.25.25.25l15.5 2.6c.99.15 1.71 1 1.7 2v23.1c.17.13.4.17.6.1l2.1-.5c.95-.19 1.62-1.03 1.6-2v-24.7c0-1.1-.89-2-2-2-.03 0-.07 0-.1 0z"/><path d="m69.1 73.2v13.8c0 .55.45 1 1 1 .31 0 .61-.15.8-.4l22.6-27.6c.5-.7 1.8-4-.8-4h-16.6c-2.58.02-5.08.9-7.1 2.5-.52.42-.98.88-1.4 1.4l-14.3 13.9c-.98.91-2.27 1.41-3.6 1.4h-21.4c-2.73-.02-5.04 2-5.4 4.7-.3 2.83 1.76 5.37 4.59 5.67.17.02.34.03.51.03h26.8c1.4-.02 2.73-.59 3.7-1.6l6.5-6.6c0-.1 4.1-4.2 4.1-4.2z"/><path d="m103.2 59.4c-.18-.17-.38-.3-.6-.4-.45-.29-1.05-.21-1.4.2l-31.9 39.2c-.33.44-.24 1.07.2 1.4.17.13.38.2.6.2h26.9v-27c0-.55.45-1 1-1s1 .45 1 1v33.8c-.03 2.62 1.9 4.85 4.5 5.2 2.75.28 5.2-1.73 5.47-4.47.02-.17.03-.35.03-.53v-35.6c.02-4.68-2.12-9.11-5.8-12z"/></g><path d="m39.7 12.9c0-2.3-1.6-3-10.8-2.7-7.7.3-11.5 1.2-13.8 4-1.9 2.3-2.3 5.6-2.6 8.4-.2 2.2-2.2 14.9 3.5 11.2.68-.45 1.23-1.07 1.6-1.8 1.2-2.1 1.9-3.5 3.3-5.6 5.3-8.6 18.8-10.5 18.8-13.5z" fill="#68abe6"/></svg>

<?xml version="1.0" encoding="utf-8"?>
<!-- Generator: Adobe Illustrator 25.2.3, SVG Export Plug-In . SVG Version: 6.00 Build 0)  -->
<svg version="1.1" id="Layer_2" xmlns="http://www.w3.org/2000/svg" xmlns:xlink="http://www.w3.org/1999/xlink" x="0px" y="0px"
	 viewBox="0 0 128 128" style="enable-background:new 0 0 128 128;" xml:space="preserve">
<g>
	<path style="fill:#194FA5;" d="M116,4H12c-4.42,0-8,3.58-8,8v104c0,4.42,3.58,8,8,8h104c4.42,0,8-3.58,8-8V12
		C124,7.58,120.42,4,116,4z"/>
	<path style="fill:#2262DD;" d="M109.7,4H11.5C7.37,4.03,4.03,7.37,4,11.5v97.9c-0.01,4.14,3.34,7.49,7.48,7.5c0.01,0,0.01,0,0.02,0
		h98.1c4.14,0.01,7.49-3.34,7.5-7.48c0-0.01,0-0.01,0-0.02V11.5c0.09-4.05-3.13-7.41-7.18-7.5C109.85,4,109.77,4,109.7,4z"/>
	<path style="fill:#FAFAFA;" d="M65.4,21.2c-1.1-1.23-1-3.13,0.24-4.24c0.54-0.48,1.24-0.76,1.96-0.76H99c1.1,0,2,0.9,2,2v5.1
		c0,1.1-0.9,2-2,2H72.1C68.5,25.3,65.4,21.2,65.4,21.2z"/>
	<path style="fill:#FAFAFA;" d="M96,112H70c-0.52,0.03-0.97-0.36-1-0.88c0-0.04,0-0.08,0-0.12v-6c-0.03-0.52,0.36-0.97,0.88-1
		c0.04,0,0.08,0,0.12,0h26c0.52-0.03,0.97,0.36,1,0.88c0,0.04,0,0.08,0,0.12v6c0.03,0.52-0.36,0.97-0.88,1
		C96.08,112,96.04,112,96,112z"/>
	<path style="fill:#FAFAFA;" d="M101,30c0-1.1-0.9-2-2-2H71.1c-0.82,0.02-1.64,0.19-2.4,0.5l-4.3,1.9
		c-0.94,0.58-1.23,1.81-0.65,2.75c0.37,0.6,1.04,0.96,1.75,0.95H70c0.55,0,1,0.44,1.01,0.99c0,0.04,0,0.07-0.01,0.11v0.9
		c0,8.28,6.72,15,15,15s15-6.72,15-15V30z"/>
	<path style="fill:#FAFAFA;" d="M13,38.8v25.4c0,0.87,0.57,1.64,1.4,1.9l18.4,5.8c0.82,0.28,1.71-0.16,1.99-0.98
		c0-0.01,0-0.01,0.01-0.02V41.7c0.01-1-0.71-1.85-1.7-2l-17.7-2.9c-1.08-0.22-2.14,0.48-2.36,1.56C13.01,38.5,13,38.65,13,38.8z"/>
	<path style="fill:#FAFAFA;" d="M38.9,34l-19.4,0.9c-0.14,0-0.25,0.11-0.25,0.25s0.11,0.25,0.25,0.25L35,38c0.99,0.15,1.71,1,1.7,2
		v23.1c0.17,0.13,0.4,0.17,0.6,0.1l2.1-0.5c0.95-0.19,1.62-1.03,1.6-2V36c0-1.1-0.89-2-2-2C38.97,34,38.93,34,38.9,34z"/>
	<path style="fill:#FAFAFA;" d="M69.1,73.2V87c0,0.55,0.45,1,1,1c0.31,0,0.61-0.15,0.8-0.4L93.5,60c0.5-0.7,1.8-4-0.8-4H76.1
		c-2.58,0.02-5.08,0.9-7.1,2.5c-0.52,0.42-0.98,0.88-1.4,1.4L53.3,73.8c-0.98,0.91-2.27,1.41-3.6,1.4H28.3
		c-2.73-0.02-5.04,2-5.4,4.7c-0.3,2.83,1.76,5.37,4.59,5.67c0.17,0.02,0.34,0.03,0.51,0.03h26.8c1.4-0.02,2.73-0.59,3.7-1.6l6.5-6.6
		C65,77.3,69.1,73.2,69.1,73.2z"/>
	<path style="fill:#FAFAFA;" d="M103.2,59.4c-0.18-0.17-0.38-0.3-0.6-0.4c-0.45-0.29-1.05-0.21-1.4,0.2L69.3,98.4
		c-0.33,0.44-0.24,1.07,0.2,1.4c0.17,0.13,0.38,0.2,0.6,0.2H97V73c0-0.55,0.45-1,1-1s1,0.45,1,1v33.8c-0.03,2.62,1.9,4.85,4.5,5.2
		c2.75,0.28,5.2-1.73,5.47-4.47c0.02-0.17,0.03-0.35,0.03-0.53V71.4C109.02,66.72,106.88,62.29,103.2,59.4z"/>
	<path style="fill:#68ABE6;" d="M39.7,12.9c0-2.3-1.6-3-10.8-2.7c-7.7,0.3-11.5,1.2-13.8,4c-1.9,2.3-2.3,5.6-2.6,8.4
		c-0.2,2.2-2.2,14.9,3.5,11.2c0.68-0.45,1.23-1.07,1.6-1.8c1.2-2.1,1.9-3.5,3.3-5.6C26.2,17.8,39.7,15.9,39.7,12.9z"/>
</g>
</svg>
